rospo-dark/16x16/panel/ulauncher-indicator.svg

<svg height="22" width="22" xmlns="http://www.w3.org/2000/svg"><path d="m15 0-4 1.7089844v.703125.3730468c.000025.00527 0 .010349 0 .015625v5.8222657 1.1757812c0 .9004959-.253362 1.7073119-.830078 2.2871099-.5601073.56271-1.3214886.914062-2.169922.914062-1.7235556 0-3-1.428372-3-3.2011719v-.9863281-4.1386719l-4 1.7792969v2.4375c0 1.0469808.1357925 2.005601.4082031 2.873047.2702908.867445.6896721 1.61352 1.2578125 2.240234.4812236.531969 1.0749412.96409 1.7773438 1.298828l.1347656.04297c.078412.04401.1561135.08793.2480469.125.8730567.352065 1.9114492.529296 3.1113281.529296l-.00195-.0039c1.2200183 0 2.2728-.170564 3.162109-.515625.889663-.342481 1.619585-.826043 2.197266-1.453125.575207-.624871 1.005679-1.377135 1.285156-2.251953.279477-.874819.417969-1.8378951.417969-2.8867191v-.1816407c.000051-.0027332.00195-.0050812.00195-.0078184z" fill="#d3dae3" transform="translate(3 3)"/></svg>

<svg xmlns="http://www.w3.org/2000/svg" width="22" height="22" version="1.1">
 <defs>
  <style id="current-color-scheme" type="text/css">
   .ColorScheme-Text { color:#d3dae3; } .ColorScheme-Highlight { color:#5294e2; }
  </style>
 </defs>
 <g id="MPATH5" transform="matrix(0.35332121,0,0,0.3686551,2.6987178,2.3117217)">
  <path style="fill:currentColor" class="ColorScheme-Text" d="m 15,0 -4,1.7089844 0,0.703125 0,0.3730468 c 2.5e-5,0.00527 0,0.010349 0,0.015625 l 0,5.8222657 0,1.1757812 C 11,10.699324 10.746638,11.50614 10.169922,12.085938 9.6098147,12.648648 8.8484334,13 8,13 6.2764444,13 5,11.571628 5,9.7988281 L 5,8.8125 5,4.6738281 1,6.453125 l 0,2.4375 c 0,1.0469808 0.1357925,2.005601 0.4082031,2.873047 0.2702908,0.867445 0.6896721,1.61352 1.2578125,2.240234 0.4812236,0.531969 1.0749412,0.96409 1.7773438,1.298828 l 0.1347656,0.04297 c 0.078412,0.04401 0.1561135,0.08793 0.2480469,0.125 C 5.6992286,15.822769 6.7376211,16 7.9375,16 L 7.93555,15.9961 c 1.2200183,0 2.2728,-0.170564 3.162109,-0.515625 0.889663,-0.342481 1.619585,-0.826043 2.197266,-1.453125 0.575207,-0.624871 1.005679,-1.377135 1.285156,-2.251953 0.279477,-0.874819 0.417969,-1.8378951 0.417969,-2.8867191 l 0,-0.1816407 C 14.998101,8.704304 15,8.701956 15,8.6992188 L 15,0 Z" transform="matrix(2.8302858,0,0,2.7125625,0.85271462,1.8669979)"/>
 </g>
</svg>
